svg/600/outlined/add_road-fill.svg

<svg xmlns="http://www.w3.org/2000/svg" width="48" height="48" viewBox="0 -960 960 960"><path d="M726.999-36.608V-147h-110.39v-79.219h110.39V-336.61h79.219v110.391h110.391V-147H806.218v110.39h-79.219Zm0-392.783v-383.61h79.219v383.61h-79.219ZM120.998-146.999v-666.002h79.784v666.002h-79.784ZM423.999-653v-160.001h79.783V-653h-79.783Zm0 252.218v-159.436h79.783v159.436h-79.783Zm0 253.783V-308h79.783v161.001h-79.783Z"/></svg>

<svg xmlns="http://www.w3.org/2000/svg" width="48" height="48" viewBox="0 -960 960 960"><path d="M727-36.61V-147H616.61v-79.22H727v-110.39h79.22v110.39h110.39V-147H806.22v110.39H727Zm0-392.78V-813h79.22v383.61H727ZM121-147v-666h79.78v666H121Zm303-506v-160h79.78v160H424Zm0 252.22v-159.44h79.78v159.44H424ZM424-147v-161h79.78v161H424Z"/></svg>
